src/symbolic/actions/document-print-preview-symbolic.svg

<?xml version="1.0" encoding="UTF-8" standalone="no"?>
<svg
   xmlns:dc="http://purl.org/dc/elements/1.1/"
   xmlns:cc="http://creativecommons.org/ns#"
   xmlns:rdf="http://www.w3.org/1999/02/22-rdf-syntax-ns#"
   xmlns:svg="http://www.w3.org/2000/svg"
   xmlns="http://www.w3.org/2000/svg"
   xmlns:sodipodi="http://sodipodi.sourceforge.net/DTD/sodipodi-0.dtd"
   xmlns:inkscape="http://www.inkscape.org/namespaces/inkscape"
   height="16.007"
   width="16"
   version="1.1"
   id="svg10"
   sodipodi:docname="document-print-preview-symbolic.svg"
   inkscape:version="0.92.4 (5da689c313, 2019-01-14)">
  <metadata
     id="metadata16">
    <rdf:RDF>
      <cc:Work
         rdf:about="">
        <dc:format>image/svg+xml</dc:format>
        <dc:type
           rdf:resource="http://purl.org/dc/dcmitype/StillImage" />
      </cc:Work>
    </rdf:RDF>
  </metadata>
  <defs
     id="defs14" />
  <sodipodi:namedview
     pagecolor="#ffffff"
     bordercolor="#666666"
     borderopacity="1"
     objecttolerance="10"
     gridtolerance="10"
     guidetolerance="10"
     inkscape:pageopacity="0"
     inkscape:pageshadow="2"
     inkscape:window-width="1366"
     inkscape:window-height="711"
     id="namedview12"
     showgrid="true"
     inkscape:snap-bbox="true"
     inkscape:bbox-nodes="true"
     inkscape:snap-nodes="false"
     inkscape:zoom="41.701056"
     inkscape:cx="7.1594383"
     inkscape:cy="6.9290006"
     inkscape:window-x="0"
     inkscape:window-y="27"
     inkscape:window-maximized="1"
     inkscape:current-layer="svg10">
    <inkscape:grid
       type="xygrid"
       id="grid834" />
  </sodipodi:namedview>
  <g
     transform="translate(-341.00021,16.010359)"
     style="display:inline;enable-background:new"
     id="layer12">
    <path
       style="color:#000000;display:inline;overflow:visible;visibility:visible;fill:#bebebe;fill-opacity:1;fill-rule:nonzero;stroke:none;stroke-width:4;marker:none;enable-background:accumulate"
       d="M 3 1.0078125 L 3 7.0078125 L 2 7.0078125 C 1 7.0078125 1 8.0078125 1 8.0078125 L 1 13.007812 L 3 13.007812 L 3 15.007812 L 12.886719 15.007812 L 12.056641 14.177734 A 3.7119572 3.7119572 0 0 1 10.712891 14.431641 A 3.7119572 3.7119572 0 0 1 8.9960938 14.007812 L 4 14.007812 L 4 13.007812 L 7.7929688 13.007812 A 3.7119572 3.7119572 0 0 1 7 10.71875 A 3.7119572 3.7119572 0 0 1 10.712891 7.0078125 L 4 7.0078125 L 4 2.0078125 L 12 2.0078125 L 12 7.0078125 L 10.712891 7.0078125 A 3.7119572 3.7119572 0 0 1 14.423828 10.71875 A 3.7119572 3.7119572 0 0 1 14.169922 12.048828 L 15 12.878906 L 15 8.0078125 C 15 8.0078125 15.108 7.0078125 14 7.0078125 L 13 7.0078125 L 13 1.0078125 L 3 1.0078125 z M 3 9.0078125 L 4 9.0078125 L 4 10.007812 L 3 10.007812 L 3 9.0078125 z "
       transform="translate(341.00021,-16.010359)"
       id="rect2997" />
  </g>
  <path
     inkscape:connector-curvature="0"
     id="path4"
     style="color:#000000;font-weight:400;line-height:normal;font-family:Sans;-inkscape-font-specification:Sans;text-indent:0;text-align:start;text-decoration:none;text-decoration-line:none;text-transform:none;overflow:visible;fill:#bebebe;marker:none;fill-opacity:1"
     overflow="visible"
     font-weight="400"
     d="M 10.72,7.9900434 A 2.726,2.726 0 0 0 8,10.708043 a 2.726,2.726 0 0 0 2.72,2.719 c 0.487,0 0.947,-0.148 1.343,-0.375 a 0.75,0.75 0 0 0 0.157,0.219 l 1.843,1.811 a 0.75130104,0.75130104 0 1 0 1.063,-1.062 l -1.844,-1.813 a 0.75,0.75 0 0 0 -0.219,-0.155 c 0.227,-0.396 0.375,-0.857 0.375,-1.344 A 2.726,2.726 0 0 0 10.72,7.9900434 Z m 0,1 c 0.955,0 1.718,0.763 1.718,1.7179996 0,0.955 -0.763,1.719 -1.718,1.719 A 1.711,1.711 0 0 1 9,10.708043 C 9,9.7530434 9.764,8.9900434 10.72,8.9900434 Z" />
</svg>

<svg xmlns="http://www.w3.org/2000/svg" height="16.007" width="16"><path style="marker:none" d="M3 1.008v6H2c-1 0-1 1-1 1v5h2v2h9.887l-.83-.83a3.712 3.712 0 0 1-1.344.254 3.712 3.712 0 0 1-1.717-.424H4v-1h3.793A3.712 3.712 0 0 1 7 10.718a3.712 3.712 0 0 1 3.713-3.71H4v-5h8v5h-1.287a3.712 3.712 0 0 1 3.71 3.71 3.712 3.712 0 0 1-.253 1.33l.83.83v-4.87s.108-1-1-1h-1v-6H3zm0 8h1v1H3v-1z" color="#000" overflow="visible" fill="#5d656b"/><path style="line-height:normal;-inkscape-font-specification:Sans;text-indent:0;text-align:start;text-decoration-line:none;text-transform:none;marker:none" overflow="visible" font-weight="400" d="M10.72 7.99A2.726 2.726 0 0 0 8 10.708a2.726 2.726 0 0 0 2.72 2.719 2.71 2.71 0 0 0 1.343-.375.75.75 0 0 0 .157.219l1.843 1.811a.751.751 0 1 0 1.063-1.062l-1.844-1.813a.75.75 0 0 0-.219-.155c.227-.396.375-.857.375-1.344A2.726 2.726 0 0 0 10.72 7.99zm0 1a1.71 1.71 0 0 1 1.718 1.718c0 .955-.763 1.719-1.718 1.719A1.711 1.711 0 0 1 9 10.708c0-.955.764-1.718 1.72-1.718z" color="#000" font-family="Sans" fill="#5d656b"/></svg>
